archdroid-icon-theme/Archdroid-LightBlue/apps/scalable/xfce4-workspaces.svg

<svg fill="#03A9F4" height="48" viewBox="0 0 48 48" width="48" xmlns="http://www.w3.org/2000/svg"><g fill="#03A9F4" stroke-width="4" transform="translate(6 -6)"><path d="m19 31h16v16h-16z"/><path d="m19 13h16v16h-16z"/><path d="m1 13h16v16h-16z"/><path d="m1 31h16v16h-16z"/></g></svg>

<svg fill="#03A9F4" height="48" version="1.1" viewBox="0 0 48 48" width="48" xmlns="http://www.w3.org/2000/svg"><g transform="translate(6 -6)"><path d="M19 31H35V47H19Z" fill="#03A9F4" stroke-width="4"/><path d="M19 13H35V29H19Z" fill="#03A9F4" stroke-width="4"/><path d="M1 13H17V29H1Z" fill="#03A9F4" stroke-width="4"/><path d="M1 31H17V47H1Z" fill="#03A9F4" stroke-width="4"/></g></svg>
